svg/pause.svg

<svg xmlns="http://www.w3.org/2000/svg" viewBox="0 0 48 64" enable-background="new 0 0 48 64"><style type="text/css">.st0{fill:#343434;}</style><title>pause</title><desc>Created with Sketch.</desc><path class="st0" d="M12 0h-8c-2.2 0-4 1.8-4 4v56c0 2.2 1.8 4 4 4h8c2.2 0 4-1.8 4-4v-56c0-2.2-1.8-4-4-4zm-2 58h-4v-52h4v52zM44 0h-8c-2.2 0-4 1.8-4 4v56c0 2.2 1.8 4 4 4h8c2.2 0 4-1.8 4-4v-56c0-2.2-1.8-4-4-4zm-2 58h-4v-52h4v52z"/></svg>

<?xml version="1.0" encoding="utf-8"?>
<!-- Generator: Adobe Illustrator 21.0.0, SVG Export Plug-In . SVG Version: 6.00 Build 0)  -->
<svg version="1.1" id="Layer_1" xmlns="http://www.w3.org/2000/svg" xmlns:xlink="http://www.w3.org/1999/xlink" x="0px" y="0px"
	 viewBox="0 0 48 64" style="enable-background:new 0 0 48 64;" xml:space="preserve">
<style type="text/css">
	.st0{fill:#343434;}
</style>
<title>pause</title>
<desc>Created with Sketch.</desc>
<g>
	<path class="st0" d="M12,0H4C1.8,0,0,1.8,0,4v56c0,2.2,1.8,4,4,4h8c2.2,0,4-1.8,4-4V4C16,1.8,14.2,0,12,0z M10,58H6V6h4V58z"/>
	<path class="st0" d="M44,0h-8c-2.2,0-4,1.8-4,4v56c0,2.2,1.8,4,4,4h8c2.2,0,4-1.8,4-4V4C48,1.8,46.2,0,44,0z M42,58h-4V6h4V58z"/>
</g>
</svg>
